!!!ONB: MCCC : IJH0448_03 : Extracted Monophonic Melody
!!!COM: Haydn, Joseph
!!!OPR: String Quartet in E-flat major
!!!OMV: 3
!!!SCT: Hob.III:64 ; Op.64 No.6
!!!ODT: 1791///
**kern
*thru
*k[b-e-a-]
*E-:
*clefF
*M3/4
4b-
=1
4ee-
4ee-
4ee-
=2
4ee-
4ee-
4ee-
=3
2.b
=4
2cc
4cc
=5
8e-
8d
8e-
8d
8cc
8b-
=6
8a-
8g
8f
8e-
4b-
=7
4gg
4gg
4gg
=8
4gg
4gg
4gg
=9
2.ee
=10
2ff
4ee-
=11
8dd
8ff
8dd
8b-
8cc
8a
=12
4b-
2r
=13
2.r
=14
2r
8ee-
8cc
=15
8dd
8ff
8dd
8b-
4d
=16
4e-
4r
8ddd-
8bb-
=17
8ccc
8eee-
8ccc
8aa-
8bb-
8gg
=18
8aa-
8ccc
8aa-
8ff
8gg
8ee-
=19
8ff
8gg
8aa-
8gg
8ff
8ee-
=20
4b-
4r
4b-
=21
4ee-
4ee-
4ee-
=22
4ee-
4ee-
4ee-
=23
2.b
=24
4cc
2r
=25
8dd-
8ee-
8dd-
8cc
4dd-
=26
4cc
2r
=27
2.dd
=28
4ee-
2r
=29
2.ee
=30
4ff
4aa-
4gg
=31
4ff
4ee-
4dd
=32
4ee-
4r
4cc
=33
4e-
4d
8cc
8b-
=34
8e-
8d
8cc
8b-
8e-
8d
=35
8cc
8b-
8e-
8d
8a-
8d
=36
4e-
4r
4b-
=37
4gg
4ee-
4ee-
=38
4bb-
4gg
8gg
8bb-
=39
8bb-
8aa-
8aa-
8gg
8gg
8ff
=40
4ff
4r
4b-
=41
4ff
4dd
4dd
=42
4aa-
4ff
8ff
8aa-
=43
8aa-
8gg
8gg
8ff
8ff
8ee-
=44
4ee-
4r
8B-
8e-
=45
8e-
8d
8e-
8d
8f
8e-
=46
8g
8f
8g
8f
8a-
8g
=47
8b-
8a
8b-
8a
8ee-
8a
=48
8cc
8b-
8dd
8cc
8ee-
8dd
=49
8ff
8ee-
8gg
8ee-
8cc
8a
=50
8b-
8dd
8ff
8bb-
8ddd
8bb-
=51
8bb-
8aa
8eee-
8ccc
8aa
8ccc
=52
4bb-
2r
=53
4r
8ggg
8ggg
4ggg
=54
4r
8bbb-
8bbb-
4bbb-
=55
4bbb-
8bbb-
8bbb-
8bbb-
8bbb-
=56
4bbb-
2r
=57
4bbb-
8bbb-
8bbb-
4bbb-
=58
4dddd
8dddd
8dddd
4dddd
=59
4eeee-
8eeee-
8eeee-
8eeee-
8eeee-
=60
4eeee-
2r
==
*-
